!!!!SEGMENT: pl-cz--iii-743--001-009_zebrowski-marcin-jozef--magnificat-suscepit-israel.krn
!!!cenid: 17xx:2340
!!!COM: Żebrowski, Marcin Józef
!!!COM-rismID: pe30020322
!!!CDT: 1702-1770/06/29
!!!CNT: Polish
!!!OPR: Magnificat
!!!OTL: Suscepit Israel
!!!OMV: 009
!!!PDT:
!!!AGN: Sacred
!!!YEC: Copyright 2022 Narodowy Instytut Fryderyka Chopina (https://polishscores.org)
!!!YEM: License CC-BY-4.0 (https://creativecommons.org/licenses/by/4.0)
!!!SMS-siglum: PL-CZ
!!!SMS-shelfmark: III-743
!!!SMS-shelfwork: 001-009 M
!!!SMS-variant: Baſso. pro Organo.: PL-CZ III-743:26-27
!!!SMS-altvar: Organo.: PL-CZ III-743:30
!!!NIFC-rismSourceID: 300033495
!!!NIFC-rismChildID: 300033495
!!!NIFC-islandoraID: pl-cz:25228
!!!URL-pdf-islandora: https://repozytorium.nifc.pl/islandora/object/pl-cz%3A25228/datastream/PDF/view
!!!URL-scan: https://polish.musicsources.pl/pl/lokalizacje/galeria/rekopisy/1473 @EN{Scan on Polish Music Sources Website} @PL{Skany w portalu Dziedzictwo Muzyki Polskiej w otwartym dostępie}
!!!IIIF:
!!!ONB-nifc: UWAGA: części Magnificatu: 1. Magnificat, 2. Et exultavit, 3. Quia respexit, 4. Quia fecit, 5. Et misericordia, 6. Fecit potentiam, 7. Deposuit potentes, 8. Esurientes implevit bonis, 9. Suscepit Israel, 10. Sicut locutus, 11. Gloria patri (razem z Sicut erat i Amen)
!!!AIN: 1 alto 1 bass 2 cor 1 organ 1 soprn 1 tenor 1 viola 2 violn
!!!key: g
!!!OMD:
!!!OMD-mod: Adagio
**kern	**fba	**dynam	**kern	**dynam	**kern	**dynam	**kern	**dynam	**kern	**kern	**kern	**kern	**text	**kern	**kern
*	*	*	*group3	*	*group3	*	*group3	*	*group2	*group2	*group2	*group2	*	*group1	*group1
*part10	*	*	*part9	*	*part8	*	*part7	*	*part6	*part5	*part4	*part3	*	*part2	*part1
*staff10	*	*	*staff9	*	*staff8	*	*staff7	*	*staff6	*staff5	*staff4	*staff3	*	*staff2	*staff1
*I"Baſso. pro Organo.	*	*	*I"Viola Oblig:	*	*I"Violino Secondo.	*	*I"Violino Primo	*	*I"Baſso.	*I"Tenore.	*I"Alto.	*I"Canto.	*	*I"Cornuo Secondo.	*I"Cornuo Primo.
*I'org	*	*	*I'vla obl.	*	*I'vl 2	*	*I'vl 1	*	*I'B	*I'T	*I'A	*I'S	*	*I'cor 2	*I'cor 1
*Iorgan	*	*	*Iviola	*	*Ivioln	*	*Ivioln	*	*Ibass	*Itenor	*Ialto	*Isoprn	*	*Icor	*Icor
*ICklav	*	*	*ICstr	*	*ICstr	*	*ICstr	*	*ICvox	*ICvox	*ICvox	*ICvox	*	*ICbras	*ICbras
*IGcont	*	*	*	*	*	*	*	*	*	*	*	*	*	*	*
*mI"Organo	*	*	*mI"Viola obligato	*	*mI"Violino II	*	*mI"Violino I	*	*mI"Basso	*mI"Tenore	*mI"Alto	*mI"Soprano	*	*mI"Corno II	*mI"Corno I
*clefF4	*	*	*clefC3	*	*clefG2	*	*clefG2	*	*clefF4	*clefC4	*clefC3	*clefC1	*	*clefG2	*clefG2
*	*	*	*	*	*	*	*	*	*	*mclefGv2	*mclefG2	*mclefG2	*	*	*
*	*	*	*	*	*	*	*	*	*	*	*	*	*	*ITrd1c2	*ITrd1c2
*k[e-b-]	*	*	*k[e-b-]	*	*k[b-e-]	*	*k[b-e-]	*	*k[b-e-]	*k[b-e-]	*k[b-e-]	*k[e-b-]	*	*k[b-e-]	*k[b-e-]
*mk[b-e-]	*	*	*mk[b-e-]	*	*	*	*	*	*	*	*	*mk[b-e-]	*	*	*
*g:	*	*	*g:	*	*g:	*	*g:	*	*g:	*g:	*g:	*g:	*	*g:	*g:
*M4/4	*	*	*M4/4	*	*M4/4	*	*M4/4	*	*M4/4	*M4/4	*M4/4	*M4/4	*	*M4/4	*M4/4
*met(c)	*	*	*met(c)	*	*met(c)	*	*met(c)	*	*met(c)	*met(c)	*met(c)	*met(c)	*	*met(c)	*met(c)
*mmet(c)	*	*	*mmet(c)	*	*mmet(c)	*	*mmet(c)	*	*mmet(c)	*mmet(c)	*mmet(c)	*mmet(c)	*	*mmet(c)	*mmet(c)
*	*	*	*	*	*	*	*	*	*tacet	*tacet	*tacet	*	*	*tacet	*tacet
=1	=1	=1	=1	=1	=1	=1	=1	=1	=1	=1	=1	=1	=1	=1	=1
!LO:TX:b:i:t=Adagio e piano. staccato:mod=staccato	!	!	!LO:TX:b:i:t=Staccato e sempre piano.:mod=staccato	!	!LO:TX:a:t=Adagio:mod=	!	!	!	!	!	!	!	!	!	!
!	!	!LO:MO:null:mod=!LO&colon;DY&colon;ed=brack	!	!LO:MO:null:mod=!LO&colon;DY&colon;ed=brack	!	!	!LO:MO:mod=!LO&colon;TX&colon;i&colon;b&colon;t=staccato	!	!	!	!	!	!	!	!
!	!	!	!	!	!	!	!LO:TX:a:i:rj:t=Staccato	!	!	!	!	!	!	!	!
!	!	!LO:MO:null:mod=p	!LO:TX:b:i:rj:t=Adagio:mod=	!LO:MO:null:mod=p	!LO:TX:b:i:rj:t=Staccato:mod=staccato	!LO:DY:b:t=piano	!LO:SIC:s=8gg|L	!LO:DY:a:t=piano	!LO:TX:a:i:t=Suscepit Izrael C Tacet:mod=	!LO:TX:a:i:t=Suscepit Izrael C C&colon; S&colon; Tacet:mod=	!LO:TX:a:i:t=Suscepit Izrael C Tacet:mod=	!LO:TX:a:i:t=Adogo Solo:mod=	!	!LO:TX:a:i:t=Suscepit tacet C:mod=	!LO:TX:a:i:t=Suscepit tacet C:mod=
8G\L|	.	.	8b-\L|	.	8dd\L|	p	8gg\L	p	1ryy	1ryy	1ryy	00r	.	1ryy	1ryy
!	!	!	!	!	!	!	!LO:SIC:s=8gg|	!	!	!	!	!	!	!	!
8G\|	.	.	8b-\|	.	8dd\|	.	8gg\	.	.	.	.	.	.	.	.
!	!	!	!	!	!	!	!LO:SIC:s=8gg|	!	!	!	!	!	!	!	!
8G\|	.	.	8b-\|	.	8dd\|	.	8gg\	.	.	.	.	.	.	.	.
!	!	!	!	!	!	!	!LO:SIC:s=8gg|J	!	!	!	!	!	!	!	!
8G\J|	.	.	8b-\J|	.	8dd\J|	.	8gg\J	.	.	.	.	.	.	.	.
!	!	!	!	!	!LO:T\X:a:t=|	!	!	!	!	!	!	!	!	!	!
8D/L|	7 #	.	8a\L|	.	8cc\L|	.	8ff#X\L|	.	.	.	.	.	.	.	.
8D/|	.	.	8a\|	.	8cc\|	.	8ff#\|	.	.	.	.	.	.	.	.
8D/|	.	.	8a\|	.	8cc\|	.	8ff#\|	.	.	.	.	.	.	.	.
8D/J|	.	.	8a\J|	.	8cc\J|	.	8ff#\J|	.	.	.	.	.	.	.	.
!LO:LB:g=original	!	!	!	!	!	!	!	!	!	!	!	!	!	!	!
=2	=2	=2	=2	=2	=2	=2	=2	=2	=2	=2	=2	=2	=2	=2	=2
8G\L	.	.	8g\L	.	8b-\L	.	8dd\L	.	1ryy	1ryy	1ryy	.	.	1ryy	1ryy
8Fn\	n4r 2	.	8g\	.	8bn\	.	8dd\	.	.	.	.	.	.	.	.
8E-\	6	.	8g\	.	8cc\	.	8ee-\	.	.	.	.	.	.	.	.
8BBn\J	6 5	.	8g\J	.	8dd\J	.	8ffn\J	.	.	.	.	.	.	.	.
!LO:TX:t=P:problem=mixed beam	!	!	!	!	!	!	!	!	!	!	!	!	!	!	!
8C/L	.	.	8g\L	.	8cc\L	.	8ee-\L	.	.	.	.	.	.	.	.
8B-X\	n4r 2	.	8g\	.	8cc\	.	8een\	.	.	.	.	.	.	.	.
8A-X\	6	.	8f\	.	8cc\	.	8ff\	.	.	.	.	.	.	.	.
8En\J	6 5	.	8c\J	.	8b-X\J	.	8gg\J	.	.	.	.	.	.	.	.
!	!	!	!LO:LB:g=original	!	!	!	!	!	!	!	!	!	!	!	!
=3	=3	=3	=3	=3	=3	=3	=3	=3	=3	=3	=3	=3	=3	=3	=3
8F\L	-	.	8f\L	.	8a-X/L	.	8cc\L	.	1ryy	1ryy	1ryy	.	.	1ryy	1ryy
8E-X\J	n4r 2	.	8f\	.	8an/	.	8cc\	.	.	.	.	.	.	.	.
8D/L	6	.	8f\	.	8b-/	.	8dd\	.	.	.	.	.	.	.	.
8AA/J	6 5	.	8f\J	.	8cc/J	.	8ee-X\J	.	.	.	.	.	.	.	.
!	!	!	!LO:TX:t=P:problem=mixed beam	!	!	!	!	!	!	!	!	!	!	!	!
8BB-/L	.	.	8f\L	.	8b-\L	.	8dd\L	.	.	.	.	.	.	.	.
8BB-/	.	.	8B-/	.	8dd\	.	8ff\	.	.	.	.	.	.	.	.
8BB-/	.	.	8B-/	.	8dd\	.	8ff\	.	.	.	.	.	.	.	.
8BB-/J	.	.	8B-/J	.	8dd\J	.	8ff\J	.	.	.	.	.	.	.	.
!	!	!	!	!	!LO:LB:g=original	!	!	!	!	!	!	!	!	!	!
=4	=4	=4	=4	=4	=4	=4	=4	=4	=4	=4	=4	=4	=4	=4	=4
!LO:TX:t=P:problem=mixed beam	!	!	!	!	!	!	!	!	!	!	!	!	!	!	!
8AA/L	6\	.	8d\L	.	8cc\L	.	8ff#X\L	.	1ryy	1ryy	1ryy	.	.	1ryy	1ryy
8A\	.	.	8d\	.	8cc\	.	8ff#\	.	.	.	.	.	.	.	.
8A\	.	.	8d\	.	8cc\	.	8ff#\	.	.	.	.	.	.	.	.
8A\J	.	.	8d\J	.	8cc\J	.	8ff#\J	.	.	.	.	.	.	.	.
*	*below	*	*	*	*	*	*	*	*	*	*	*	*	*	*
!LO:TX:t=P:problem=mixed beam	!	!	!	!	!	!	!	!	!	!	!	!	!	!	!
8B-\L	6	.	8B-/L	.	8dd\L	.	8gg\L	.	.	.	.	.	.	.	.
8c\	6 5	.	8c/	.	8ee-\	.	8gg\	.	.	.	.	.	.	.	.
8d\	6 4	.	8d/	.	8b-\	.	8gg\	.	.	.	.	.	.	.	.
8D/J	5 #	.	8D/J	.	8a\J	.	8ff#X\J	.	.	.	.	.	.	.	.
=5	=5	=5	=5	=5	=5	=5	=5	=5	=5	=5	=5	=5	=5	=5	=5
4G\	.	.	4D/	.	4b-/	.	4gg\	.	1ryy	1ryy	1ryy	00r	.	1ryy	1ryy
4r	.	.	4r	.	4r	.	4r	.	.	.	.	.	.	.	.
8G\L	.	.	8b-\L	.	8dd\L	.	8gg\L	.	.	.	.	.	.	.	.
8G\	.	.	8b-\	.	8dd\	.	8gg\	.	.	.	.	.	.	.	.
*	*above	*	*	*	*	*	*	*	*	*	*	*	*	*	*
8B-\	5	.	8b-\	.	8dd\	.	8ffn\	.	.	.	.	.	.	.	.
8B-\J	.	.	8b-\J	.	8dd\J	.	8ff\J	.	.	.	.	.	.	.	.
!LO:LB:g=original	!	!	!	!	!	!	!	!	!	!	!	!	!	!	!
=6	=6	=6	=6	=6	=6	=6	=6	=6	=6	=6	=6	=6	=6	=6	=6
8A\L	6\ 5	.	8cc\L	.	8ee-\L	.	8ff#X\L	.	1ryy	1ryy	1ryy	.	.	1ryy	1ryy
8G\	6 4	.	8cc\	.	8ee-\	.	8gg\	.	.	.	.	.	.	.	.
8F#X\	6 5	.	8a\	.	8dd\	.	8aa\	.	.	.	.	.	.	.	.
*	*	*	*	*	*	*	*custos:gg	*	*	*	*	*	*	*	*
8D\J	7 #	.	8a\J	.	8cc\J	.	8ff#X\J	.	.	.	.	.	.	.	.
!LO:TX:t=P:problem=mixed beam	!	!	!	!	!	!	!LO:LB:g=original	!	!	!	!	!	!	!	!
8GG/L	.	.	8g\L	.	8b-\L	.	8gg\L	.	.	.	.	.	.	.	.
8G\	.	.	8b-\	.	8dd\	.	8gg\	.	.	.	.	.	.	.	.
8B-\	5	.	8b-\	.	8dd\	.	8ffn\	.	.	.	.	.	.	.	.
8B-\J	.	.	8b-\J	.	8dd\J	.	8ff\J	.	.	.	.	.	.	.	.
=7	=7	=7	=7	=7	=7	=7	=7	=7	=7	=7	=7	=7	=7	=7	=7
8A\L	6\ 5	.	8cc\L	.	8ee-\L	.	8ff#X\L	.	1ryy	1ryy	1ryy	.	.	1ryy	1ryy
8G\	6 4	.	8cc\	.	8ee-\	.	8gg\	.	.	.	.	.	.	.	.
8F#X\	6 5	.	8a\	.	8dd\	.	8aa\	.	.	.	.	.	.	.	.
8D\J	7 #	.	8a\J	.	8cc\J	.	8ff#X\J	.	.	.	.	.	.	.	.
!LO:TX:t=P:problem=mixed beam	!	!	!	!	!	!	!	!	!	!	!	!	!	!	!
8G\L	.	.	8g\L	.	8b-/L	.	8gg\L	.	.	.	.	.	.	.	.
8BB-/J	6	.	8d\	.	8b-/	.	8gg\	.	.	.	.	.	.	.	.
8C/L	6 5	.	8e-\	.	8a/	.	8gg\	.	.	.	.	.	.	.	.
!	!	!	!	!	!LO:TX:a:t=b:mod=	!	!	!	!	!	!	!	!	!	!
8C#X/J	7 5	.	8en\J	.	8b-/J	.	8gg\J	.	.	.	.	.	.	.	.
=8	=8	=8	=8	=8	=8	=8	=8	=8	=8	=8	=8	=8	=8	=8	=8
!LO:TX:t=P:problem=mixed beam	!	!	!	!	!	!	!	!	!	!	!	!	!	!	!
8D\L	6 4	.	8d\L	.	8b-/L	.	8gg\L	.	1ryy	1ryy	1ryy	.	.	1ryy	1ryy
8D\	.	.	8d\	.	8b-/	.	8gg\	.	.	.	.	.	.	.	.
8DD/	.	.	8d\	.	8a/	.	8ff#X\	.	.	.	.	.	.	.	.
8DD/J	.	.	8d\J	.	8a/J	.	8ff#\J	.	.	.	.	.	.	.	.
!	!	!	!	!	!LO:LB:g=original	!	!	!	!	!	!	!	!	!	!
[4GG/	.	.	4d\	.	4b-/	.	4gg\	.	.	.	.	.	.	.	.
!LO:TX:t=P:problem=mixed beam	!	!	!	!	!	!	!	!	!	!	!	!	!	!	!
16GG/LL]	.	.	4r	.	4r	.	4r	.	.	.	.	.	.	.	.
!	!	!LO:DY:b:t=for&colon;	!	!	!	!	!	!	!	!	!	!	!	!	!
16c\	.	f	.	.	.	.	.	.	.	.	.	.	.	.	.
!LO:TX:a:t=t.:mod=	!	!	!	!	!	!	!	!	!	!	!	!	!	!	!
!LO:SIC:s=16.B-T	!	!	!	!	!	!	!	!	!	!	!	!	!	!	!
16.B-\	.	.	.	.	.	.	.	.	.	.	.	.	.	.	.
32A\JJk	.	.	.	.	.	.	.	.	.	.	.	.	.	.	.
=9	=9	=9	=9	=9	=9	=9	=9	=9	=9	=9	=9	=9	=9	=9	=9
!	!	!LO:MO:null:mod=p	!	!	!	!	!	!	!	!	!	!	!	!	!
8G\L	.	.	8b-\L	.	8dd\L	.	8gg\L	.	1ryy	1ryy	1ryy	4g/	Sus-	1ryy	1ryy
!	!	!LO:DY:b:t=pia	!	!	!	!	!	!	!	!	!	!	!	!	!
!	!	!LO:MO:null:mod=.	!	!	!	!	!	!	!	!	!	!	!	!	!
8G\	.	p	8b-\	.	8dd\	.	8gg\	.	.	.	.	.	.	.	.
8G\	.	.	8b-\	.	8dd\	.	8gg\	.	.	.	.	8b-\	-ce-	.	.
8G\J	.	.	8b-\J	.	8dd\J	.	8gg\J	.	.	.	.	8dd\	-pit	.	.
.	.	.	.	.	.	.	.	.	.	.	.	8qqdd/	.	.	.
8d\L	7 #	.	8a\L	.	8cc\L	.	8ff#X\L	.	.	.	.	8.cc\	Is-	.	.
8d\	.	.	8a\	.	8cc\	.	8ff#\	.	.	.	.	.	.	.	.
.	.	.	.	.	.	.	.	.	.	.	.	16b-\	-ra-	.	.
8d\	.	.	8a\	.	8cc\	.	8ff#\	.	.	.	.	4cc\	-el	.	.
8d\J	.	.	8a\J	.	8cc\J	.	8ff#\J	.	.	.	.	.	.	.	.
!LO:LB:g=original	!	!	!	!	!	!	!	!	!	!	!	!LO:LB:g=original	!	!	!
=10	=10	=10	=10	=10	=10	=10	=10	=10	=10	=10	=10	=10	=10	=10	=10
!	!	!	!	!	!	!	!LO:SIC:v:s=8ff#\L	!	!	!	!	!	!	!	!
8D/L	7 #	.	8a\L	.	8cc\L	.	8ff\L	.	1ryy	1ryy	1ryy	(16cc\LL	pu-	1ryy	1ryy
.	.	.	.	.	.	.	.	.	.	.	.	16a\JJ)	.	.	.
.	.	.	.	.	.	.	.	.	.	.	.	8qqee-/	.	.	.
!	!	!	!	!	!	!	!LO:SIC:v:s=8ff#\	!	!	!	!	!	!	!	!
8D/	.	.	8a\	.	8cc\	.	8ff\	.	.	.	.	4dd\	-e-	.	.
!	!	!	!	!	!	!	!LO:SIC:v:s=8ff#\	!	!	!	!	!	!	!	!
8D/	.	.	8d\	.	8cc\	.	8ff\	.	.	.	.	.	.	.	.
!	!	!	!	!	!	!	!LO:SIC:v:s=8ff#\J	!	!	!	!	!	!	!	!
8D/J	.	.	8d\J	.	8cc\J	.	8ff\J	.	.	.	.	8cc\	-rum	.	.
!LO:TX:t=P:problem=mixed beam	!	!	!	!	!	!	!	!	!	!	!	!	!	!	!
8GG/L	.	.	8d\L	.	8b-\L	.	8gg\L	.	.	.	.	(16b-\LL	su-	.	.
.	.	.	.	.	.	.	.	.	.	.	.	16a\JJ)	.	.	.
8G\J	.	.	8d\	.	8b-\	.	8gg\	.	.	.	.	8g\	-um	.	.
!LO:TX:t=P:problem=mixed beam	!	!	!	!	!	!	!	!	!	!	!	!	!	!	!
8A\L	n6	.	8f\	.	8cc\	.	8ffn\	.	.	.	.	4r	.	.	.
8AA/J	5	.	8f\J	.	8cc\J	.	8ee-\J	.	.	.	.	.	.	.	.
!	!	!	!LO:LB:g=original	!	!	!	!	!	!	!	!	!	!	!	!
=11	=11	=11	=11	=11	=11	=11	=11	=11	=11	=11	=11	=11	=11	=11	=11
!LO:TX:t=P:problem=mixed beam	!	!	!	!	!	!	!	!	!	!	!	!	!	!	!
8BB-/L	.	.	8f\L	.	8b-/L	.	8dd\L	.	1ryy	1ryy	1ryy	4dd\	Sus-	1ryy	1ryy
8B-\	.	.	8f\	.	8b-/	.	8dd\	.	.	.	.	.	.	.	.
8B-\	.	.	8f\	.	8b-/	.	8dd\	.	.	.	.	(16b-\LL	-ce-	.	.
.	.	.	.	.	.	.	.	.	.	.	.	16cc\JJ)	.	.	.
8B-\J	.	.	8f\J	.	8b-/J	.	8dd\J	.	.	.	.	(16dd\LL	-pit	.	.
.	.	.	.	.	.	.	.	.	.	.	.	16een\JJ)	.	.	.
8F\L	.	.	8f\L	.	8a/L	.	8cc\L	.	.	.	.	8.ff\	Is-	.	.
8F\	.	.	8f\	.	8a/	.	8cc\	.	.	.	.	.	.	.	.
.	.	.	.	.	.	.	.	.	.	.	.	16f/	-ra-	.	.
8F\	.	.	8f\	.	8a/	.	8cc\	.	.	.	.	4f/	-el	.	.
8F\J	.	.	8f\J	.	8a/J	.	8cc\J	.	.	.	.	.	.	.	.
!	!	!	!	!	!	!	!LO:LB:g=original	!	!	!	!	!	!	!	!
=12	=12	=12	=12	=12	=12	=12	=12	=12	=12	=12	=12	=12	=12	=12	=12
*	*	*	*	*	*	*	*	*	*	*	*	*	*ij	*	*
8G\L	.	.	8d\L	.	8g/L	.	8b-/L	.	1ryy	1ryy	1ryy	4b-\	Sus-	1ryy	1ryy
8G\	.	.	8d\	.	8g/	.	8b-/	.	.	.	.	.	.	.	.
8G\	.	.	8d\	.	8g/	.	8b-/	.	.	.	.	(16g\LL	-ce-	.	.
.	.	.	.	.	.	.	.	.	.	.	.	16a\JJ)	.	.	.
8G\J	.	.	8d\J	.	8g/J	.	8b-/J	.	.	.	.	(16b-\LL	-pit	.	.
.	.	.	.	.	.	.	.	.	.	.	.	16cc\JJ)	.	.	.
8D\L	.	.	8d\L	.	8f/L	.	8a/L	.	.	.	.	8.dd\	Is-	.	.
8D\	.	.	8d\	.	8f/	.	8a/	.	.	.	.	.	.	.	.
.	.	.	.	.	.	.	.	.	.	.	.	16d/	-ra-	.	.
8D\	.	.	8d\	.	8f/	.	8a/	.	.	.	.	4d/	-el	.	.
*	*	*	*	*	*	*	*	*	*	*	*	*	*Xij	*	*
8D\J	.	.	8d\J	.	8f/J	.	8a/J	.	.	.	.	.	.	.	.
!	!	!	!	!	!LO:LB:g=original	!	!	!	!	!	!	!	!	!	!
=13	=13	=13	=13	=13	=13	=13	=13	=13	=13	=13	=13	=13	=13	=13	=13
8E-\L	.	.	8B-/L	.	8e-/L	.	8g/L	.	1ryy	1ryy	1ryy	4g/	Sus-	1ryy	1ryy
8E-\	.	.	8B-/	.	8e-/	.	8g/	.	.	.	.	.	.	.	.
8E-\	.	.	8B-/	.	8e-/	.	8g/	.	.	.	.	(16e-/LL	-ce-	.	.
.	.	.	.	.	.	.	.	.	.	.	.	16f/JJ)	.	.	.
8E-\J	.	.	8B-/J	.	8e-/J	.	8g/J	.	.	.	.	(16g/LL	-pit	.	.
.	.	.	.	.	.	.	.	.	.	.	.	16a/JJ)	.	.	.
8BB-/L	.	.	8B-/L	.	8d/L	.	8f/L	.	.	.	.	8.b-\	Is-	.	.
8BB-/	.	.	8B-/	.	8d/	.	8f/	.	.	.	.	.	.	.	.
.	.	.	.	.	.	.	.	.	.	.	.	16a\	-ra-	.	.
8BB-/	.	.	8B-/	.	8d/	.	8f/	.	.	.	.	4b-\	-el	.	.
8BB-/J	.	.	8B-/J	.	8d/J	.	8f/J	.	.	.	.	.	.	.	.
!	!	!	!	!	!	!	!	!	!	!	!	!LO:LB:g=original	!	!	!
=14	=14	=14	=14	=14	=14	=14	=14	=14	=14	=14	=14	=14	=14	=14	=14
8C/L	.	.	8G/L	.	8c/L	.	8e-/L	.	1ryy	1ryy	1ryy	16ee-\	pu-	1ryy	1ryy
.	.	.	.	.	.	.	.	.	.	.	.	16dd\	-e-	.	.
8C/	.	.	8G/	.	8c/	.	8e-/	.	.	.	.	8dd\	-rum	.	.
8BB-/	4 2	.	8G/	.	8c/	.	8e-/	.	.	.	.	8r	.	.	.
!	!	!	!	!	!	!	!	!	!	!	!	!	!LO:MO:mod=su-	!	!
8BB-/J	.	.	8G/J	.	8c/J	.	8e-/J	.	.	.	.	(16ee-\LL	Su-	.	.
.	.	.	.	.	.	.	.	.	.	.	.	16dd\JJ)	.	.	.
!LO:LB:g=original	!	!	!	!	!	!	!	!	!	!	!	!	!	!	!
!LO:TX:t=P:problem=mixed beam	!	!	!	!	!	!	!	!	!	!	!	!	!	!	!
8AA/L	6 5	.	8F/L	.	8c/L	.	8e-/L	.	.	.	.	8ee-\	-um	.	.
8A\J	.	.	8F/	.	8c/	.	8e-/	.	.	.	.	8r	.	.	.
!LO:TX:t=P:problem=mixed beam	!	!	!	!	!	!	!	!	!	!	!	!	!	!	!
8GG/L	6	.	8G/	.	8B-/	.	8e-/	.	.	.	.	4r	.	.	.
8G\J	.	.	8G/J	.	8B-/J	.	8e-/J	.	.	.	.	.	.	.	.
=15	=15	=15	=15	=15	=15	=15	=15	=15	=15	=15	=15	=15	=15	=15	=15
8F\L	7	.	8A/L	.	8c/L	.	8e-/L	.	1ryy	1ryy	1ryy	8r	.	1ryy	1ryy
!	!	!	!	!	!	!	!	!	!	!	!	!	!LO:MO:mod=Sus-	!	!
8F\	.	.	8A/	.	8c/	.	8e-/	.	.	.	.	8f/	Su-	.	.
8F\	.	.	8A/	.	8c/	.	8e-/	.	.	.	.	8cc\	-ce-	.	.
8F\J	.	.	8A/J	.	8c/J	.	8e-/J	.	.	.	.	8ee-\	-pit	.	.
8BB-/L	.	.	8F/L	.	8B-/L	.	8d/L	.	.	.	.	8dd\	Is-	.	.
8C/	6	.	8F/	.	8e-/	.	8a/	.	.	.	.	8a\	-ra-	.	.
8D/	6	.	8F/	.	8f/	.	8b-/	.	.	.	.	8b-\	-el	.	.
8C/J	5	.	8G/J	.	8cc/J	.	8ee-/J	.	.	.	.	16r	.	.	.
.	.	.	.	.	.	.	.	.	.	.	.	16ee-\	pu-	.	.
=16	=16	=16	=16	=16	=16	=16	=16	=16	=16	=16	=16	=16	=16	=16	=16
!LO:TX:t=P:problem=mixed beam	!	!	!LO:TX:t=P:problem=mixed beam	!	!	!	!	!	!	!	!	!	!	!	!
8G\L	.	.	8G/L	.	8b-/L	.	8dd\L	.	1ryy	1ryy	1ryy	24dd\LL	-e-	1ryy	1ryy
.	.	.	.	.	.	.	.	.	.	.	.	24cc\	.	.	.
.	.	.	.	.	.	.	.	.	.	.	.	24b-\JJ	.	.	.
8E-\	.	.	8g\	.	8b-/	.	8cc\	.	.	.	.	24ee-\LL	-rum	.	.
.	.	.	.	.	.	.	.	.	.	.	.	24dd\	.	.	.
.	.	.	.	.	.	.	.	.	.	.	.	24cc\JJ	.	.	.
.	.	.	.	.	.	.	.	.	.	.	.	8qqdd/	.	.	.
8F\	.	.	8f\	.	8a/	.	8cc\	.	.	.	.	4ccT\	su-	.	.
8FF/J	.	.	8e-\J	.	8a/J	.	8cc\J	.	.	.	.	.	.	.	.
8BB-/L	.	.	8d\L	.	8f/L	.	8b-/L	.	.	.	.	4b-\	-um	.	.
8BB-/	.	.	8d\	.	8f/	.	8b-/	.	.	.	.	.	.	.	.
8BB-/	.	.	8d\	.	8f/	.	8b-/	.	.	.	.	4r	.	.	.
8BB-/J	.	.	8d\J	.	8f/J	.	8b-/J	.	.	.	.	.	.	.	.
!	!	!	!	!	!	!	!LO:LB:g=original	!	!	!	!	!	!	!	!
=17	=17	=17	=17	=17	=17	=17	=17	=17	=17	=17	=17	=17	=17	=17	=17
!	!	!	!	!	!	!	!	!	!	!	!	!LO:TX:a:t=5.:mod=	!	!	!
8BB-/L	6 4	.	8e-\L	.	8g/L	.	8b-/L	.	1ryy	1ryy	1ryy	00r	.	1ryy	1ryy
8BB-/	.	.	8e-\	.	8g/	.	8b-/	.	.	.	.	.	.	.	.
8BB-/	.	.	8e-\	.	8g/	.	8b-/	.	.	.	.	.	.	.	.
8BB-/J	.	.	8e-\J	.	8g/J	.	8b-/J	.	.	.	.	.	.	.	.
!	!	!	!	!	!LO:LB:g=original	!	!	!	!	!	!	!	!	!	!
8BB-/L	-7r 3	.	8d\L	.	8f/L	.	8b-/L	.	.	.	.	.	.	.	.
8BB-/	.	.	8d\	.	8f/	.	8b-/	.	.	.	.	.	.	.	.
8BB-/	.	.	8d\	.	8f/	.	8b-/	.	.	.	.	.	.	.	.
8BB-/J	.	.	8d\J	.	8f/J	.	8b-/J	.	.	.	.	.	.	.	.
=18	=18	=18	=18	=18	=18	=18	=18	=18	=18	=18	=18	=18	=18	=18	=18
8BB-/L	-7r	.	8d\L	.	8f/L	.	8b-/L	.	1ryy	1ryy	1ryy	.	.	1ryy	1ryy
8BB-/	.	.	8d\	.	8f/	.	8b-/	.	.	.	.	.	.	.	.
8BB-/	.	.	8d\	.	8f/	.	8b-/	.	.	.	.	.	.	.	.
8BB-/J	.	.	8d\J	.	8f/J	.	8b-/J	.	.	.	.	.	.	.	.
!	!	!	!LO:LB:g=original	!	!	!	!	!	!	!	!	!	!	!	!
8E-\L	.	.	8e-\L	.	8g/L	.	8b-/L	.	.	.	.	.	.	.	.
8E-\	.	.	8e-\	.	8g/	.	8b-/	.	.	.	.	.	.	.	.
8C\	n6 5	.	8e-\	.	8g/	.	8a/	.	.	.	.	.	.	.	.
8C\J	.	.	8e-\J	.	8g/J	.	8a/J	.	.	.	.	.	.	.	.
!LO:LB:g=original	!	!	!	!	!	!	!	!	!	!	!	!	!	!	!
=19	=19	=19	=19	=19	=19	=19	=19	=19	=19	=19	=19	=19	=19	=19	=19
8D/L	.	.	8d\L	.	8f/L	.	8a/L	.	1ryy	1ryy	1ryy	.	.	1ryy	1ryy
8D/	.	.	8d\	.	8f/	.	8a/	.	.	.	.	.	.	.	.
8BB-/	6 5	.	8d\	.	8f/	.	8g/	.	.	.	.	.	.	.	.
8BB-/J	.	.	8d\J	.	8f/J	.	8g/J	.	.	.	.	.	.	.	.
8C/L	.	.	8c/L	.	8e-/L	.	8g/L	.	.	.	.	.	.	.	.
8C/	.	.	8c/	.	8e-/	.	8g/	.	.	.	.	.	.	.	.
8AA/	6 5	.	8c/	.	8e-/	.	8f/	.	.	.	.	.	.	.	.
8AA/J	.	.	8c/J	.	8e-/J	.	8f/J	.	.	.	.	.	.	.	.
=20	=20	=20	=20	=20	=20	=20	=20	=20	=20	=20	=20	=20	=20	=20	=20
8BB-/L	n	.	8B-/L	.	8d/L	.	8f/L	.	1ryy	1ryy	1ryy	.	.	1ryy	1ryy
8BB-/	.	.	8B-/	.	8f/	.	8f/	.	.	.	.	.	.	.	.
8BB-/	-	.	8B-/	.	8f/	.	8f/	.	.	.	.	.	.	.	.
8BB-/J	.	.	8B-/J	.	8f/J	.	8f/J	.	.	.	.	.	.	.	.
8En\L	-7r	.	8r	.	8g/L	.	8g/L	.	.	.	.	.	.	.	.
8E\	6	.	8c/L	.	8g/	.	8g/	.	.	.	.	.	.	.	.
8E\	.	.	8c/	.	8g/	.	8g/	.	.	.	.	.	.	.	.
8E\J	5	.	8c/J	.	8g/J	.	8g/J	.	.	.	.	.	.	.	.
=21	=21	=21	=21	=21	=21	=21	=21	=21	=21	=21	=21	=21	=21	=21	=21
8F\L	.	.	8c/L	.	8f/L	.	8a/L	.	1ryy	1ryy	1ryy	1r	.	1ryy	1ryy
8B-\	n4r 2	.	8en/	.	8g/	.	8cc/	.	.	.	.	.	.	.	.
8B-\	.	.	8e/	.	8g/	.	8cc/	.	.	.	.	.	.	.	.
8B-\J	.	.	8e/J	.	8g/J	.	8cc/J	.	.	.	.	.	.	.	.
8A\L	6 -5	.	8f\L	.	8f/L	.	8cc\L	.	.	.	.	.	.	.	.
8B-\	.	.	8B-\J	.	8f/	.	8b-\	.	.	.	.	.	.	.	.
8E-X\	6 5	.	8G/L	.	8g/	.	8b-\	.	.	.	.	.	.	.	.
8F\J	.	.	8A/J	.	8f/J	.	8a\J	.	.	.	.	.	.	.	.
!	!	!	!	!	!LO:LB:g=original	!	!	!	!	!	!	!	!	!	!
=22	=22	=22	=22	=22	=22	=22	=22	=22	=22	=22	=22	=22	=22	=22	=22
!LO:TX:t=P:problem=mixed beam	!	!	!	!	!LO:TX:t=P:problem=mixed beam	!	!LO:TX:a:t=b:mod=	!	!	!	!	!	!	!	!
8BB-/L	.	.	8d\L	.	8f/L	.	8b-\L	.	1ryy	1ryy	1ryy	4dd\	Sus-	1ryy	1ryy
8B-\	.	.	8B-\	.	8dd\	.	8ff\	.	.	.	.	.	.	.	.
8A-X\	6	.	8c\	.	8cc\	.	8ff\	.	.	.	.	8ff\	-ce-	.	.
8A-\J	.	.	8c\J	.	8cc\J	.	8ff\J	.	.	.	.	8cc\	-pit	.	.
!	!	!	!	!	!	!	!LO:LB:g=original	!	!	!	!	!	!	!	!
8G\L	7 n	.	8d\L	.	8bn/L	.	8ff\L	.	.	.	.	8.bn\	Is-	.	.
8G\	.	.	8d\	.	8b/	.	8ff\	.	.	.	.	.	.	.	.
.	.	.	.	.	.	.	.	.	.	.	.	16a\	-ra-	.	.
!	!	!	!	!	!	!	!	!	!	!	!	!LO:N:vis=8	!	!	!
8G\	.	.	8d\	.	8b/	.	8ff\	.	.	.	.	4b\	-el	.	.
8G\J	.	.	8d\J	.	8b/J	.	8ff\J	.	.	.	.	.	.	.	.
!	!	!	!	!	!	!	!	!	!	!	!	!LO:LB:g=original	!	!	!
=23	=23	=23	=23	=23	=23	=23	=23	=23	=23	=23	=23	=23	=23	=23	=23
8GG/L	7 n	.	4d\	.	4Bn/	.	4G/	.	1ryy	1ryy	1ryy	4ff\	pu-	1ryy	1ryy
8GG/	.	.	.	.	.	.	.	.	.	.	.	.	.	.	.
8GG/	6 4	.	4r	.	4r	.	4r	.	.	.	.	8ee-\	-e-	.	.
!LO:TX:b:i:t=Volti subito.:mod=	!	!	!	!	!	!	!	!	!	!	!	!	!	!	!
8GG/J	5 n	.	.	.	.	.	.	.	.	.	.	8dd\	-rum	.	.
!LO:PB:g=original	!	!	!	!	!	!	!	!	!	!	!	!	!LO:MO:mod=su-	!	!
8C/L	.	.	8c/L	.	32ee-\LLL|	.	32gg\LLL|	.	.	.	.	(16ee-\LL	Su-	.	.
.	.	.	.	.	(32ee-\	.	(32gg\	.	.	.	.	.	.	.	.
.	.	.	.	.	32dd\	.	32ff\	.	.	.	.	16dd\JJ)	.	.	.
.	.	.	.	.	32cc\JJJ)	.	32ee-\JJJ)	.	.	.	.	.	.	.	.
8C/	.	.	8c/	.	32gg\LLL|	.	32ee-\LLL|	.	.	.	.	8cc\	-um	.	.
.	.	.	.	.	(32gg\	.	(32ee-\	.	.	.	.	.	.	.	.
.	.	.	.	.	32ff\	.	32dd\	.	.	.	.	.	.	.	.
.	.	.	.	.	32ee-\JJJ)	.	32cc\JJJ)	.	.	.	.	.	.	.	.
8C/	.	.	8c/	.	32e-/LLL|	.	32g/LLL|	.	.	.	.	4r	.	.	.
.	.	.	.	.	(32e-/	.	(32g/	.	.	.	.	.	.	.	.
.	.	.	.	.	32d/	.	32f/	.	.	.	.	.	.	.	.
.	.	.	.	.	32c/JJJ)	.	32e-/JJJ)	.	.	.	.	.	.	.	.
8C/J	.	.	8c/J	.	32g/LLL|	.	32e-/LLL|	.	.	.	.	.	.	.	.
.	.	.	.	.	(32g/	.	(32e-/	.	.	.	.	.	.	.	.
.	.	.	.	.	32f/	.	32d/	.	.	.	.	.	.	.	.
.	.	.	.	.	32e-/JJJ)	.	32c/JJJ)	.	.	.	.	.	.	.	.
=24	=24	=24	=24	=24	=24	=24	=24	=24	=24	=24	=24	=24	=24	=24	=24
8C\L	.	.	8c/L	.	8ee-\L	.	8gg\L	.	1ryy	1ryy	1ryy	4ee-\	sus-	1ryy	1ryy
8c\	.	.	8c/	.	8ee-\	.	8gg\	.	.	.	.	.	.	.	.
8B-\	6	.	8d/	.	8dd\	.	8gg\	.	.	.	.	8gg\	-ce-	.	.
8B-\J	.	.	8d/J	.	8dd\J	.	8gg\J	.	.	.	.	8dd\	-pit	.	.
8A\L	7 #	.	8en\L	.	8cc#X\L	.	8gg\L	.	.	.	.	8.cc#X\	Is-	.	.
8A\	.	.	8e\	.	8cc#\	.	8gg\	.	.	.	.	.	.	.	.
.	.	.	.	.	.	.	.	.	.	.	.	16bn\	-ra-	.	.
8A\	.	.	8e\	.	8cc#\	.	8gg\	.	.	.	.	4cc#X\	-el	.	.
8A\J	.	.	8e\J	.	8cc#\J	.	8gg\J	.	.	.	.	.	.	.	.
=25	=25	=25	=25	=25	=25	=25	=25	=25	=25	=25	=25	=25	=25	=25	=25
!	!	!	!LO:SIC:v:s=4e\	!	!	!	!	!	!	!	!	!	!	!	!
8AA/L	7 #	.	4e-\	.	4c#X/	.	4A/	.	1ryy	1ryy	1ryy	4gg\	pu-	1ryy	1ryy
8AA/	.	.	.	.	.	.	.	.	.	.	.	.	.	.	.
8AA/	6\ 4	.	4r	.	4r	.	4r	.	.	.	.	8ff#X\	-e-	.	.
8AA/J	n5r #	.	.	.	.	.	.	.	.	.	.	8een\	-rum	.	.
!	!	!	!	!	!LO:LB:g=original	!	!	!	!	!	!	!	!LO:MO:mod=su-	!	!
8D\L	#	.	2r	.	2r	.	2r	.	.	.	.	(16ff#X\LL	Su-	.	.
.	.	.	.	.	.	.	.	.	.	.	.	16een\JJ)	.	.	.
8D\	.	.	.	.	.	.	.	.	.	.	.	8dd\	-um	.	.
8F#X\	6	.	.	.	.	.	.	.	.	.	.	8r	.	.	.
8F#\J	.	.	.	.	.	.	.	.	.	.	.	16a\	re-	.	.
.	.	.	.	.	.	.	.	.	.	.	.	16dd\	-cor-	.	.
=26	=26	=26	=26	=26	=26	=26	=26	=26	=26	=26	=26	=26	=26	=26	=26
!	!	!	!LO:TX:a:t=2:mod=	!	!LO:TX:a:t=2.:mod=	!	!	!	!	!	!	!	!	!	!
.	.	.	.	.	.	.	.	.	.	.	.	8qqcc/	.	.	.
8G\L	.	.	0r	.	0r	.	0r	.	1ryy	1ryy	1ryy	8b-\	-da-	1ryy	1ryy
8D\	5 #	.	.	.	.	.	.	.	.	.	.	8a\	-tus	.	.
8D\	6 4	.	.	.	.	.	.	.	.	.	.	16r	.	.	.
.	.	.	.	.	.	.	.	.	.	.	.	16dd\	mi-	.	.
8D\J	7 #	.	.	.	.	.	.	.	.	.	.	16a\	-se-	.	.
*	*	*	*	*	*	*	*	*	*	*	*	*custos:cc	*	*	*
.	.	.	.	.	.	.	.	.	.	.	.	16cc\	-ri-	.	.
!	!	!	!	!	!	!	!	!	!	!	!	!LO:LB:g=original	!	!	!
.	.	.	.	.	.	.	.	.	.	.	.	8qqcc/	.	.	.
8D/L	6 4	.	.	.	.	.	.	.	.	.	.	16b-\	-cor-	.	.
.	.	.	.	.	.	.	.	.	.	.	.	16a\	-di-	.	.
8D/J	5 #	.	.	.	.	.	.	.	.	.	.	8a\	-a	.	.
8D/L	6 4	.	.	.	.	.	.	.	.	.	.	8r	.	.	.
16D/L	5 #	.	.	.	.	.	.	.	.	.	.	16b-\	re-	.	.
16BB-/JJ	6	.	.	.	.	.	.	.	.	.	.	16gg\	-cor-	.	.
=27	=27	=27	=27	=27	=27	=27	=27	=27	=27	=27	=27	=27	=27	=27	=27
.	.	.	.	.	.	.	.	.	.	.	.	8qqff/	.	.	.
8C/L	.	.	.	.	.	.	.	.	1ryy	1ryy	1ryy	8ee-\	-da-	1ryy	1ryy
8GG/	.	.	.	.	.	.	.	.	.	.	.	8dd\	-tus	.	.
8GG/	6 4	.	.	.	.	.	.	.	.	.	.	16r	.	.	.
.	.	.	.	.	.	.	.	.	.	.	.	16gg\	mi-	.	.
8GG/J	5 3	.	.	.	.	.	.	.	.	.	.	16dd\	-se-	.	.
.	.	.	.	.	.	.	.	.	.	.	.	16ff\	-ri-	.	.
8GG/L	6 4	.	.	.	.	.	.	.	.	.	.	16ee-\	-cor-	.	.
.	.	.	.	.	.	.	.	.	.	.	.	16dd\	-di-	.	.
8GG/	5 3	.	.	.	.	.	.	.	.	.	.	8dd\	-a	.	.
8GG/	6 4	.	.	.	.	.	.	.	.	.	.	8r	.	.	.
8GG/J	5 3	.	.	.	.	.	.	.	.	.	.	16dd\	re-	.	.
.	.	.	.	.	.	.	.	.	.	.	.	16dd\	-cor-	.	.
!	!	!	!LO:LB:g=original	!	!	!	!	!	!	!	!	!	!	!	!
=28	=28	=28	=28	=28	=28	=28	=28	=28	=28	=28	=28	=28	=28	=28	=28
8C/L	.	.	8g\L	.	8cc\L	.	8ee-\L	.	1ryy	1ryy	1ryy	16ee-\LL	-da-	1ryy	1ryy
.	.	.	.	.	.	.	.	.	.	.	.	16ff\J	.	.	.
8C/	.	.	8g\	.	8cc\	.	8ee-\	.	.	.	.	[8gg\J	.	.	.
!	!	!	!	!	!	!	!	!	!	!	!	!LO:TUP:a:problem=klamra łukowa	!	!	!
8C/	.	.	8g\	.	8cc\	.	8ee-\	.	.	.	.	24gg\LL]	.	.	.
.	.	.	.	.	.	.	.	.	.	.	.	24ff\	.	.	.
.	.	.	.	.	.	.	.	.	.	.	.	24ee-\JJ	.	.	.
!	!	!	!	!	!	!	!	!	!	!	!	!LO:TUP:a:problem=klamra łukowa	!	!	!
8C/J	.	.	8e-\J	.	8g\J	.	8ee-\J	.	.	.	.	24dd\LL	.	.	.
.	.	.	.	.	.	.	.	.	.	.	.	24cc\	.	.	.
.	.	.	.	.	.	.	.	.	.	.	.	24b-\JJ	.	.	.
!LO:LB:g=original	!	!	!	!	!	!	!	!	!	!	!	!	!	!	!
8F\L	7	.	8c\L	.	8a/L	.	8ee-\L	.	.	.	.	16a\LL	.	.	.
.	.	.	.	.	.	.	.	.	.	.	.	16b-\J	.	.	.
8F\	.	.	8c\	.	8a/	.	8ee-\	.	.	.	.	[8cc\J	.	.	.
!	!	!	!	!	!	!	!	!	!	!	!	!LO:MO:mod=*null:null	!	!	!
*	*	*	*	*	*	*	*	*	*	*	*	*Xtuplet	*	*	*
8F\	.	.	8c\	.	8a/	.	8ee-\	.	.	.	.	24cc\LL]	.	.	.
.	.	.	.	.	.	.	.	.	.	.	.	24ee-\	.	.	.
.	.	.	.	.	.	.	.	.	.	.	.	24dd\JJ	.	.	.
*	*	*	*	*	*	*	*	*	*	*	*	*tuplet	*	*	*
!	!	!	!	!	!	!	!	!	!	!	!	!LO:TUP:a:problem=klamra łukowa	!	!	!
8F\J	.	.	8f\J	.	8a/J	.	8ee-\J	.	.	.	.	24ee-\LL	.	.	.
.	.	.	.	.	.	.	.	.	.	.	.	24dd\	.	.	.
.	.	.	.	.	.	.	.	.	.	.	.	24cc\JJ	.	.	.
=29	=29	=29	=29	=29	=29	=29	=29	=29	=29	=29	=29	=29	=29	=29	=29
8BB-/L	9 7	.	8f\L	.	8a/L	.	8dd\L	.	1ryy	1ryy	1ryy	16dd\LL	.	1ryy	1ryy
.	.	.	.	.	.	.	.	.	.	.	.	16ee-\J	.	.	.
8BB-/	.	.	8f\	.	8a/	.	8dd\	.	.	.	.	[8ff\J	.	.	.
!	!	!	!	!	!	!	!	!	!	!	!	!LO:TUP:a:problem=klamra łukowa	!	!	!
8BB-/	.	.	8f\	.	8a/	.	8dd\	.	.	.	.	24ff\LL]	.	.	.
.	.	.	.	.	.	.	.	.	.	.	.	24ee-\	.	.	.
.	.	.	.	.	.	.	.	.	.	.	.	24dd\JJ	.	.	.
!	!	!	!	!	!	!	!	!	!	!	!	!LO:TUP:a:problem=klamra łukowa	!	!	!
8BB-/J	.	.	8d\J	.	8a/J	.	8dd\J	.	.	.	.	24cc\LL	.	.	.
.	.	.	.	.	.	.	.	.	.	.	.	24b-\	.	.	.
.	.	.	.	.	.	.	.	.	.	.	.	24a\JJ	.	.	.
!	!	!	!	!	!	!	!LO:LB:g=original	!	!	!	!	!LO:LB:g=original	!	!	!
8E-\L	7	.	8B-\L	.	8g/L	.	8dd\L	.	.	.	.	16g\LL	.	.	.
.	.	.	.	.	.	.	.	.	.	.	.	16a\J	.	.	.
8E-\	.	.	8B-\	.	8g/	.	8dd\	.	.	.	.	[8b-\J	.	.	.
!	!	!	!	!	!	!	!	!	!	!	!	!LO:TUP:a:problem=klamra łukowa	!	!	!
8E-\	.	.	8B-\	.	8g/	.	8dd\	.	.	.	.	24b-\LL]	.	.	.
.	.	.	.	.	.	.	.	.	.	.	.	24dd\	.	.	.
.	.	.	.	.	.	.	.	.	.	.	.	24cc\JJ	.	.	.
!	!	!	!	!	!	!	!	!	!	!	!	!LO:TUP:a:problem=klamra łukowa	!	!	!
8E-\J	.	.	8e-\J	.	8g/J	.	8dd\J	.	.	.	.	24dd\LL	.	.	.
.	.	.	.	.	.	.	.	.	.	.	.	24cc\	.	.	.
.	.	.	.	.	.	.	.	.	.	.	.	24b-\JJ	.	.	.
=30	=30	=30	=30	=30	=30	=30	=30	=30	=30	=30	=30	=30	=30	=30	=30
8AA/L	9 7	.	8e-\L	.	8g/L	.	8cc\L	.	1ryy	1ryy	1ryy	16cc\LL	.	1ryy	1ryy
.	.	.	.	.	.	.	.	.	.	.	.	16dd\J	.	.	.
8AA/	.	.	8e-\	.	8g/	.	8cc\	.	.	.	.	[8ee-\J	.	.	.
!	!	!	!	!	!	!	!	!	!	!	!	!LO:TUP:a:problem=klamra łukowa	!	!	!
8AA/	.	.	8e-\	.	8g/	.	8cc\	.	.	.	.	24ee-\LL]	.	.	.
.	.	.	.	.	.	.	.	.	.	.	.	24dd\	.	.	.
.	.	.	.	.	.	.	.	.	.	.	.	24cc\JJ	.	.	.
!	!	!	!	!	!	!	!	!	!	!	!	!LO:TUP:a:problem=klamra łukowa	!	!	!
8AA/J	.	.	8c\J	.	8g/J	.	8cc\J	.	.	.	.	24b-\LL	.	.	.
.	.	.	.	.	.	.	.	.	.	.	.	24a\	.	.	.
.	.	.	.	.	.	.	.	.	.	.	.	24g\JJ	.	.	.
8D/L	7 #	.	8A\L	.	8f#X/L	.	8cc\L	.	.	.	.	16f#X\LL	.	.	.
.	.	.	.	.	.	.	.	.	.	.	.	16g\J	.	.	.
8D/	.	.	8A\	.	8f#/	.	8cc\	.	.	.	.	[8a\J	.	.	.
!	!	!	!	!	!	!	!	!	!	!	!	!LO:TUP:a:problem=klamra łukowa	!	!	!
8D/	.	.	8A\	.	8f#/	.	8cc\	.	.	.	.	24a\LL]	.	.	.
.	.	.	.	.	.	.	.	.	.	.	.	24cc\	.	.	.
.	.	.	.	.	.	.	.	.	.	.	.	24b-\JJ	.	.	.
!	!	!	!	!	!	!	!	!	!	!	!	!LO:TUP:a:problem=klamra łukowa	!	!	!
8D/J	.	.	8d\J	.	8f#/J	.	8cc\J	.	.	.	.	24cc\LL	.	.	.
.	.	.	.	.	.	.	.	.	.	.	.	24b-\	.	.	.
.	.	.	.	.	.	.	.	.	.	.	.	24a\JJ	.	.	.
=31	=31	=31	=31	=31	=31	=31	=31	=31	=31	=31	=31	=31	=31	=31	=31
*	*	*	*	*	*	*	*	*	*	*	*	*2\right	*	*	*
8r	.	.	8r	.	8r	.	8r	.	1ryy	1ryy	1ryy	2b-T\	.	1ryy	1ryy
16.C#X/LL	7 5	.	16.en\LL	.	16.g/LL	.	16.b-/LL	.	.	.	.	.	.	.	.
32C#/JJk	.	.	32e\JJk	.	32g/JJk	.	32b-/JJk	.	.	.	.	.	.	.	.
!	!	!	!LO:TX:t=P:problem=mixed beam	!	!	!	!	!	!	!	!	!	!	!	!
8C#/L	.	.	8e\L	.	8g/L	.	8b-/L	.	.	.	.	.	.	.	.
!	!	!	!LO:SIC:s=8eJ	!	!	!	!	!	!	!	!	!	!	!	!
8C#/J	.	.	8e\	.	8g/J	.	8b-/J	.	.	.	.	.	.	.	.
!	!	!	!LO:SIC:s=8dL	!	!	!	!	!	!	!	!	!	!	!	!
4D\	5 4	.	8d\	.	8g/L	.	8a/L	.	.	.	.	4a\	-tus	.	.
.	x #	.	8D/J	.	8f#X/J	.	8a/J	.	.	.	.	.	.	.	.
4F#X\	6 5	.	4r	.	4r	.	4r	.	.	.	.	8r	.	.	.
.	.	.	.	.	.	.	.	.	.	.	.	16cc\	re-	.	.
.	.	.	.	.	.	.	.	.	.	.	.	16cc\	-cor-	.	.
!	!	!	!	!	!LO:LB:g=original	!	!	!	!	!	!	!	!	!	!
=32	=32	=32	=32	=32	=32	=32	=32	=32	=32	=32	=32	=32	=32	=32	=32
8GG/L	.	.	2r	.	2r	.	2r	.	1ryy	1ryy	1ryy	8b-\	-da-	1ryy	1ryy
8AA/	6\ 5	.	.	.	.	.	.	.	.	.	.	16f#X/	-tus	.	.
.	.	.	.	.	.	.	.	.	.	.	.	16f#/	mi-	.	.
8BB-/	6	.	.	.	.	.	.	.	.	.	.	8g/	-se-	.	.
8C/J	6	.	.	.	.	.	.	.	.	.	.	8a\	-ri	.	.
8D/L	6 4	.	8b-\L	.	8dd\L	.	8gg\L	.	.	.	.	4.b-T\	-cor-	.	.
8D/	.	.	8b-\	.	8dd\	.	8gg\	.	.	.	.	.	.	.	.
8D/	.	.	8b-\	.	8dd\	.	8gg\	.	.	.	.	.	.	.	.
8D/J	.	.	8b-\J	.	8dd\J	.	8gg\J	.	.	.	.	16a\	-di-	.	.
.	.	.	.	.	.	.	.	.	.	.	.	16g\	-a	.	.
!LO:LB:g=original	!	!	!	!	!	!	!	!	!	!	!	!	!	!	!
=33	=33	=33	=33	=33	=33	=33	=33	=33	=33	=33	=33	=33	=33	=33	=33
8D/L	7 #	.	8a\L	.	8cc\L	.	8ff#X\L	.	1ryy	1ryy	1ryy	2at\	su-	1ryy	1ryy
8D/	.	.	8a\	.	8cc\	.	8ff#\	.	.	.	.	.	.	.	.
8D/	.	.	8a\	.	8cc\	.	8ff#\	.	.	.	.	.	.	.	.
8D/J	.	.	8a\J	.	8cc\J	.	8ff#\J	.	.	.	.	.	.	.	.
8G\L	.	.	8g\L	.	8b-\L	.	8gg\L	.	.	.	.	4g\	-ae	.	.
!	!	!	!LO:TX:a:t=b:mod=	!	!	!	!	!	!	!	!	!	!	!	!
8G\	.	.	8b-\	.	8dd\	.	8gg\	.	.	.	.	.	.	.	.
8B-\	5	.	8b-\	.	8dd\	.	8ffn\	.	.	.	.	4r	.	.	.
8B-\J	.	.	8b-\J	.	8dd\J	.	8ff\J	.	.	.	.	.	.	.	.
!	!	!	!	!	!	!	!	!	!	!	!	!LO:LB:g=original	!	!	!
=34	=34	=34	=34	=34	=34	=34	=34	=34	=34	=34	=34	=34	=34	=34	=34
8A\L	6\ 5	.	8cc\L	.	8ee-\L	.	8ff#X\L	.	1ryy	1ryy	1ryy	0r	.	1ryy	1ryy
8G\	6 4	.	8cc\	.	8ee-\	.	8gg\	.	.	.	.	.	.	.	.
8F#X\	6 5	.	8a\	.	8dd\	.	8aa\	.	.	.	.	.	.	.	.
8D\J	7 #	.	8a\J	.	8cc\J	.	8ff#X\J	.	.	.	.	.	.	.	.
!LO:TX:t=P:problem=mixed beam	!	!	!	!	!	!	!	!	!	!	!	!	!	!	!
8GG/L	.	.	8g\L	.	8b-\L	.	8gg\L	.	.	.	.	.	.	.	.
8G\	.	.	8b-\	.	8dd\	.	8gg\	.	.	.	.	.	.	.	.
8B-\	5	.	8b-\	.	8dd\	.	8ffn\	.	.	.	.	.	.	.	.
8B-\J	.	.	8b-\J	.	8dd\J	.	8ff\J	.	.	.	.	.	.	.	.
!	!	!	!	!	!	!	!LO:LB:g=original	!	!	!	!	!	!	!	!
=35	=35	=35	=35	=35	=35	=35	=35	=35	=35	=35	=35	=35	=35	=35	=35
8A\L	6\ 5	.	8cc\L	.	8ee-\L	.	8ff#X\L	.	1ryy	1ryy	1ryy	.	.	1ryy	1ryy
8G\	6 4	.	8cc\	.	8ee-\	.	8gg\	.	.	.	.	.	.	.	.
8F#X\	6 5	.	8a\	.	8dd\	.	8aa\	.	.	.	.	.	.	.	.
8D\J	7 #	.	8a\J	.	8cc\J	.	8ff#X\J	.	.	.	.	.	.	.	.
!LO:TX:t=P:problem=mixed beam	!	!	!	!	!	!	!	!	!	!	!	!	!	!	!
8G\L	.	.	8g\L	.	8b-/L	.	8gg\L	.	.	.	.	.	.	.	.
8BB-/J	6	.	8d\	.	8b-/	.	8gg\	.	.	.	.	.	.	.	.
8C/L	6 5	.	8e-\	.	8a/	.	8gg\	.	.	.	.	.	.	.	.
8C#X/J	7 5	.	8en\J	.	8b-/J	.	8gg\J	.	.	.	.	.	.	.	.
!	!	!	!LO:LB:g=original	!	!LO:LB:g=original	!	!	!	!	!	!	!	!	!	!
=36	=36	=36	=36	=36	=36	=36	=36	=36	=36	=36	=36	=36	=36	=36	=36
8D/L	6 4	.	8d\L	.	8b-/L	.	8gg\L	.	1ryy	1ryy	1ryy	1r	.	1ryy	1ryy
8D/	.	.	8d\	.	8b-/	.	8gg\	.	.	.	.	.	.	.	.
8DD/	5 #	.	8d\	.	8a/	.	8ff#X\	.	.	.	.	.	.	.	.
8DD/J	7	.	8d\J	.	8a/J	.	8ff#\J	.	.	.	.	.	.	.	.
4GG/	.	.	4d\	.	4b-/	.	4gg\	.	.	.	.	.	.	.	.
4r	.	.	4r	.	4r	.	4r	.	.	.	.	.	.	.	.
==	==	==	==	==	==	==	==	==	==	==	==	==	==	==	==
*-	*-	*-	*-	*-	*-	*-	*-	*-	*-	*-	*-	*-	*-	*-	*-
!!!system-decoration: [(g1)][(g2)][(g3)]s10
!!!RDF**kern: | = vertical stroke
!!!filter-modern: sic -sq | shed -e "s/TX(.*):t=P:/tx$1:t=P:/LG" | shed -e "s/yy//" | shed -e "s/^custos:/Xcustos:/I" | shed -e "s/:rj/:RJ/L" | shed -k -e "s/LO:N:vis/LO:n:vis:/L" | shed -e "s/^(\d+[\/\\]right)/$1yy/I;s/^(\d+[\/\\]left)/$1yy/I" | shed -k -e "s/:TUP:/:tup:/L" | shed -k -e "s/([^a-gA-Gn#X-])[<>]/$1/g" | shed -e "s/(LO:DY.*):t=(.*$)/$1:T=$2/L; s/LO:DY(.*)(:a:)(.*)/LO:dy:$1$2$3/L; s/LO:DY(.*)(:b:)(.*)/LO:dy:$1$2$3/L; s/LO:DY(.*)(:[ab])$/LO:dy:$1$2/L; s/LO:DY(.*)(:rj:)(.*)/LO:dy:$1$2$3/L" | shed -e "s/-//B" | modori -m | tie -s | autostem -r | humtr -p
!!!ENC: Anastazja Marusiak
!!!END: 2022-03-28
!!!EED: Marta Lawrence
!!!EEV: 2022-03-29
!!!ENC-modern: Andrzej Borzym
!!!END-modern: 2022-08-31
